X:1
T:Ed Yother's Polka #2
C:Ed Yother
C:c.2010
C:http://edyother.com
M:2/4
R:Polka
L:1/8
K:D
Bd AF | Ad ff/f/ | gf ed | fe dB |
Bd AF | Ad ff/f/ | gf ea | fe d2 :|
|: Bc/c/ BA | FA D2 | FA/A/ FA | BA FA |
Bc/c/ BA | FA D2 |[1 EF/F/ ED | B,D A,2 :|[2 BA Ff | (3(efe) d2 ||

%%newpage
%%begintext
Hornpipes
%%endtext


